src/22/panel/system-file-manager-panel.svg

<svg xmlns="http://www.w3.org/2000/svg" width="22" height="22" version="1"><defs><style id="current-color-scheme" type="text/css"></style></defs><path d="M6 3c-.554 0-1 .446-1 1v2c0-.554.446-1 1-1h10c.554 0 1 .446 1 1V4c0-.554-.446-1-1-1zm0 3c-.554 0-1 .446-1 1v1h12V7c0-.554-.446-1-1-1zM4 9c-.554 0-1 .446-1 1v8c0 .554.446 1 1 1h14c.554 0 1-.446 1-1v-8c0-.554-.446-1-1-1zm5.25 4h3.5c.139 0 .25.111.25.25v.5a.25.25 0 0 1-.25.25h-3.5a.249.249 0 0 1-.25-.25v-.5a.25.25 0 0 1 .25-.25z" fill="currentColor" color="#bebebe"/></svg>

<svg xmlns="http://www.w3.org/2000/svg" width="22" height="22" version="1">
 <defs>
  <style id="current-color-scheme" type="text/css">
   .ColorScheme-Text { color:#bebebe; } .ColorScheme-Highlight { color:#5294e2; }
  </style>
 </defs>
 <path style="fill:currentColor" class="ColorScheme-Text" d="m 6,2.9999998 c -0.554,0 -1,0.446 -1,1 L 5,6.0000002 C 5,5.4459998 5.446,4.9999998 6,4.9999998 l 10,0 c 0.554,0 1,0.446 1,1.0000004 l 0,-2.0000004 c 0,-0.554 -0.446,-1 -1,-1 z m 0,3.0000004 c -0.554,0 -1,0.446 -1,1 l 0,1 12,0 0,-1 c 0,-0.554 -0.446,-1 -1,-1 z m -2,3 c -0.554,0 -1,0.446 -1,0.9999998 l 0,8 c 0,0.554 0.446,1 1,1 l 14,0 c 0.554,0 1,-0.446 1,-1 l 0,-8 C 19,9.4460002 18.554,9.0000002 18,9.0000002 Z M 9.25,13 l 3.5,0 c 0.139,0 0.25,0.111 0.25,0.25 l 0,0.5 C 13,13.889 12.888,14 12.75,14 l -3.5,0 C 9.111,14 9,13.889 9,13.75 l 0,-0.5 C 9,13.111 9.112,13 9.25,13 Z"/>
</svg>
